public/library/hemi-icon-dark.svg

<svg xmlns="http://www.w3.org/2000/svg" width="1004" height="1004" fill="none" viewBox="0 0 1004 1004"><g clip-path="url(#a)"><path fill="#ff4600" d="M1004 502C1004 224.753 779.247 0 502 0S0 224.753 0 502s224.753 502 502 502 502-224.753 502-502"/><path fill="#fff" d="M565.694 170.78c-3.409-.612-6.617 1.635-7.219 5.107L517.346 413.45h-30.693l-41.127-237.563c-.602-3.472-3.812-5.719-7.223-5.107-146.049 28.802-257.994 155.448-267.222 310.283 0 .204-.401 6.74-.401 10.009v10.826c0 164.231 115.154 300.885 267.824 331.116 3.411.612 6.621-1.632 7.223-5.106l41.126-237.561h30.694l40.928 237.767c.602 3.469 3.81 5.718 7.219 5.106 146.051-29.006 257.797-155.651 267.224-310.487 0-.206.402-6.742.402-10.01v-10.825c.201-164.231-114.953-300.886-267.626-331.118"/></g><defs><clipPath id="a"><path fill="#fff" d="M0 0h1004v1004H0z"/></clipPath></defs></svg>

<svg width="1004" height="1004" viewBox="0 0 1004 1004" fill="none" xmlns="http://www.w3.org/2000/svg">
<g clip-path="url(#clip0_3192_6072)">
<path d="M1004 502C1004 224.753 779.247 0 502 0C224.753 0 0 224.753 0 502C0 779.247 224.753 1004 502 1004C779.247 1004 1004 779.247 1004 502Z" fill="#FF4600"/>
<path d="M565.694 170.78C562.285 170.168 559.077 172.415 558.475 175.887L517.346 413.45H486.653L445.526 175.887C444.924 172.415 441.714 170.168 438.303 170.78C292.254 199.582 180.309 326.228 171.081 481.063C171.081 481.267 170.68 487.803 170.68 491.072C170.68 491.48 170.68 491.889 170.68 492.093C170.68 493.318 170.68 494.544 170.68 495.77C170.68 496.178 170.68 496.587 170.68 497.2C170.68 498.834 170.68 500.264 170.68 501.898C170.68 666.129 285.834 802.783 438.504 833.014C441.915 833.626 445.125 831.382 445.727 827.908L486.853 590.347H517.547L558.475 828.114C559.077 831.583 562.285 833.832 565.694 833.22C711.745 804.214 823.491 677.569 832.918 522.733C832.918 522.527 833.32 515.991 833.32 512.723C833.32 512.316 833.32 511.904 833.32 511.704C833.32 510.479 833.32 509.254 833.32 508.024C833.32 507.617 833.32 507.211 833.32 506.598C833.32 504.962 833.32 503.531 833.32 501.898C833.521 337.667 718.367 201.012 565.694 170.78Z" fill="white"/>
</g>
<defs>
<clipPath id="clip0_3192_6072">
<rect width="1004" height="1004" fill="white"/>
</clipPath>
</defs>
</svg>
